#OPL4-NOUSE
#EX-OPL3

@OPL0 = {
 ;FB ST T  V  P
  0 ,0 ,0 ,0 ,0

 ;TR VI SU KSR MUL KSL OL AR DR SL RR WF
  0 ,0 ,0 ,0  ,2  ,0  ,$8 ,$f ,0 ,0 ,4 ,1,
  0 ,0 ,0 ,0  ,0  ,0  ,$8 ,$f ,0 ,0 ,4 ,1,
  0 ,0 ,0 ,0  ,0  ,0  ,0  ,5  ,5 ,5 ,5 ,0,
  0 ,0 ,0 ,0  ,0  ,0  ,0  ,5  ,5 ,5 ,5 ,0
}


@OPL1 = {
 ;FB ST T  V  P
  0 ,1 ,0 ,0 ,0

 ;TR VI SU KSR MUL KSL OL AR DR SL RR WF
  0 ,0 ,0 ,0  ,2  ,0  ,$8 ,$f ,0 ,0 ,4 ,1,
  0 ,0 ,0 ,0  ,0  ,0  ,$8 ,$f ,0 ,0 ,4 ,1
}


@OPF2 = {
 ;FB ST T  V  P
  0 ,1 ,0 ,0 ,0

 ;TR VI SU KSR MUL KSL OL AR DR SL RR WF
  0 ,0 ,0 ,0  ,2  ,0  ,$8 ,$f ,0 ,0 ,4 ,1,
  0 ,0 ,0 ,0  ,0  ,0  ,$8 ,$f ,0 ,0 ,4 ,1,
  0 ,0 ,0 ,0  ,0  ,0  ,0  ,5  ,5 ,5 ,5 ,0,
  0 ,0 ,0 ,0  ,0  ,0  ,0  ,5  ,5 ,5 ,5 ,0
}



@OPL3 = {
 ;FB ST T  V  P
  0 ,1 ,0 ,0 ,0

 ;TR VI SU KSR MUL KSL OL AR DR SL RR WF
  0 ,0 ,0 ,0  ,2  ,0  ,$8 ,$f ,0 ,0 ,4 ,1,
  0 ,0 ,0 ,0  ,0  ,0  ,$8 ,$f ,0 ,0 ,4 ,1
}



A v63 t120 o4

A WX0
; A c d e f g
A c & v-5 g
